X:1
T:Saved by the Blood
T:Daniel Brink Towner
T:Saved by the Blood
T:Public Domain
T:Public Domain
C:Daniel Brink Towner
Z:Public Domain
%%score ( 1 2 ) ( 3 4 )
L:1/8
M:6/4
K:Eb
V:1 treble 
V:2 treble 
V:3 bass 
V:4 bass 
V:1
 [EB]3 [EB] [EB]2 [Ec]2 [EB]2 [EG]2 | [DB]2 [DA]2 [B,F]2 [B,E]4 [B,E]2 | %2
w: 1.~Saved by the blood of the|Cru- ci- fied One! Now|
w: 2.~Saved by the blood of the|Cru- ci- fied One! The|
w: 3.~Saved by the blood of the|Cru- ci- fied One! The|
w: 4.~Saved by the blood of the|Cru- ci- fied One! All|
 [DF]3 [EG] [FA]2 [FA]2 [DF]2 [DA]2 | [Ec]2 [EB]3 [EG] [GB]4 B2 | %4
w: ran- somed from sin and a|new work be- gun, Sing|
w: an- gels re- joic- ing be-|cause it is done; A|
w: Fa- ther He spake, and His|will it was done; Great|
w: hail to the Fa- ther, all|hail to the Son, All|
 [ce]3 [ce] [ce]2 [ce]2 [Bd]2 [Ac]2 | [GB]3 [Ac] [GB]2 [EG]6 | [DB]3 [Ec] [Fd]2 [Ge]2 [GB]2 [EG]2 | %7
w: to the Fa- ther and praise|to the Son, Saved|by the blood of the Cru-|
w: of the Fa- ther, joint heir|with the Son, Saved|by the blood of the Cru-|
w: of my par- don, His own|pre- cious Son; Saved|by the blood of the Cru-|
w: to the Spir- it, the great|Three in One! Saved|by the blood of the Cru-|
 [DB]3 [DA] [DF]2 E6 ||"^Refrain" G3 G G2 e6 | A3 A A2 A4 [Ac]2 | %10
w: ci- fied One! *|||
w: ci- fied One! *|||
w: ci- fied One! *|||
w: ci- fied One! *|||
 [Ad]3 [Ad] [Ad]2 [Ad]2 [Ac]2 [AB]2 | [GB]3 [Ac] [GB]2 [Ge]6 | G3 G G2 e6 | A3 A A2 A4 [Ac][Ac] | %14
w: ||||
w: ||||
w: ||||
w: ||||
 [AB]3 [Ac] [Ad]2 [Ge]2 [GB]2 [EG]2 | [DB]3 [DA] [DF]2 E6 |] %16
w: ||
w: ||
w: ||
w: ||
V:2
 x12 | x12 | x12 | x10 B2 | x12 | x12 | x12 | x6 E6 || e6- G6 | e6- e4 x2 | x12 | x12 | e6- G6 | %13
w: |||praise||||||||||
w: |||child||||||||||
w: |||price||||||||||
w: |||hail||||||||||
 e6- e4 x2 | x12 | x6 E6 |] %16
w: |||
w: |||
w: |||
w: |||
V:3
 [E,G,]3 [E,G,] [E,G,]2 [E,A,]2 [E,G,]2 [E,B,]2 | [B,,B,]2 [B,,B,]2 [B,,A,]2 [E,G,]4 [E,G,]2 | %2
w: ~ ~ ~ ~ ~ ~|~ ~ ~ ~ ~|
 [B,,B,]3 [B,,B,] [B,,B,]2 [B,,B,]2 [B,,B,]2 [B,,B,]2 | [E,A,]2 [E,G,]3 [E,B,] [E,E]4 [G,E]2 | %4
w: ~ ~ ~ ~ ~ ~|~ ~ ~ ~ ~|
 [A,E]3 [A,E] [A,E]2 [A,E]2 [A,E]2 [A,E]2 | [E,E]3 [E,E] [E,E]2 [E,B,]6 | %6
w: ~ ~ ~ ~ ~ ~|~ ~ ~ ~|
 [B,,A,]3 [B,,B,] [B,,B,]2 [E,B,]2 [E,B,]2 [E,B,]2 | [B,,B,]3 [B,,B,] [B,,A,]2 [E,G,]6 || %8
w: ~ ~ ~ ~ ~ ~|~ ~ ~ ~|
 [E,B,]3 [E,B,] [E,B,]2 [E,B,]6 | [A,C]3 [A,C] [A,C]2 [A,C]4 [A,E]2 | %10
w: Glo- ry, I’m saved!|Glo- ry, I’m saved! My|
 B,3 [B,D] [B,F]2 [B,F]2 [B,F]2 [B,D]2 | [E,E]3 [E,E] [E,E]2 [E,B,]6 | %12
w: sins are all par- doned, my|is all gone! Glo-|
 [E,B,]3 [E,B,] [E,B,]2 [E,B,]6 | [A,C]3 [A,C] [A,C]2 [A,C]4 [A,E][A,E] | %14
w: ry, I’m saved! Glo-|ry, I’m saved! I am saved|
 [B,D]3 [B,E] [B,F]2 [E,E]2 [E,E]2 [E,B,]2 | [B,,B,]3 [B,,B,] [B,,A,]2 [E,G,]6 |] %16
w: by the blood of the Cru-|ci- fied One! *|
V:4
 x12 | x12 | x12 | x12 | x12 | x12 | x12 | x12 || x12 | x12 | B,3 x9 | x12 | x12 | x12 | x12 | %15
w: ||||||||||guilt|||||
 x12 |] %16
w: |

